icons/copy.svg

<svg xmlns="http://www.w3.org/2000/svg" width="24" height="24" viewBox="0 0 24 24">
  <path d="M14,8 C15.1045695,8 16,8.8954305 16,10 L16,20 C16,21.1045695 15.1045695,22 14,22 L4,22 C2.8954305,22 2,21.1045695 2,20 L2,10 C2,8.8954305 2.8954305,8 4,8 L14,8 Z M20,2 C21.1045695,2 22,2.8954305 22,4 L22,14 C22,15.1045695 21.1045695,16 20,16 L18,16 L18,8 C18,6.9456382 17.1841222,6.08183488 16.1492623,6.00548574 L16,6 L8,6 L8,4 C8,2.8954305 8.8954305,2 10,2 L20,2 Z"/>
</svg>

<svg xmlns="http://www.w3.org/2000/svg" viewBox="0 0 24 24">
  <path d="M14 8a2 2 0 0 1 2 2v10a2 2 0 0 1-2 2H4a2 2 0 0 1-2-2V10c0-1.1.9-2 2-2h10zm6-6a2 2 0 0 1 2 2v10a2 2 0 0 1-2 2h-2V8a2 2 0 0 0-1.85-2H8V4c0-1.1.9-2 2-2h10z"/>
</svg>
